X:1
T:Title
%%score { ( 1 3 ) | ( 2 4 ) }
L:1/8
Q:1/4=100
M:6/4
K:Db
V:1 treble nm="Grand Piano"
V:3 treble 
V:2 bass 
V:4 bass 
V:1
 [FA]2 [_F=G]2 [=FA]2 [Fd]2 F2 B2 | A2 B2 A2 F6 | [CA]2 [CE]2 [DF]2 [EG]2 [FA]2 [GB]2 | %3
w: B.~D.~Ackley * * * * *|||
 [GB]2 [FA]2 [EG]2 [DF]6 | [FA]2 [_F=G]2 [=FA]2 [Fd]2 F2 B2 | A2 B2 A2 F6 | E2 A2 B2 c2 d2 c2 | %7
w: ||||
[M:7/4] B2 c2 B2 A2- [GA]4- [G-A]>G |[M:6/4] [Fd]2 [Fc]2 [FB]2 [FA]2 .F4 | B2 A2 F2 G6 | %10
w: |||
 [EGd]2 [EGc]2 [DGB]2 [CGA]2 [CE]2 [CF]2 | [CG]2 [Gc]2 [CGB]2 [DFA]6 | %12
w: ||
 [A,DF]2 [A,DF]2 [=A,EF]2 [DB]2 [DF]2 [DF]2 | c2 F2 F2 [Fd]6 | e2 d2 B2 [Ad]3 A F2 | %15
w: |||
 [CA]2 [CG]2 [CE]2 D6 |] %16
w: |
V:2
 [D,D]2 [D,D]2 [D,D]2 [D,A,]2 [D,A,D]2 [D,G,D]2 | [D,F,D]2 [D,G,D]2 [D,F,D]2 [D,A,D]6 | %2
 [A,,E,]2 [A,,A,]2 [A,,A,]2 [A,,A,]2 [A,,A,]2 [A,,A,]2 | [A,,A,]2 [B,,A,]2 [C,A,]2 [D,A,]6 | %4
 [D,D]2 [D,D]2 [D,D]2 [D,A,]2 [D,A,D]2 [D,G,D]2 | [D,F,D]2 [D,G,D]2 [D,F,D]2 [D,A,D]6 | %6
 [E,A,C]2 [E,A,C]2 [E,=G,E]2[K:treble] [A,E]2 [A,F]2[K:bass] [A,E]2 | %7
[M:7/4] [E,=G,D]2 [E,G,E]2 [E,G,D]2 z2 C6 |[M:6/4] [D,A,]2 [D,A,]2 [D,B,]2 [D,D]2 .[D,A,D]4 | %9
 [D,G,D]2 [D,F,D]2 [D,A,D]2 [E,A,C]6 | A,,2 A,,2 A,,2 A,,2 [A,,A,]2 [A,,A,]2 | %11
 [A,,A,]2 [A,,A,]2 A,,2 D,6 | D,2 D,2 C,2 [B,,B,]2 [B,,B,]2 [B,,B,]2 | %13
 [F,=A,E]2 [F,CE]2 [F,CE]2 [B,,B,]6 | [G,B,G]2 [G,B,G]2 [G,DG]2 [F,D]3 [F,D] [D,A,D]2 | %15
 [A,,A,]2 [A,,E,]2 [A,,G,]2 [D,F,]6 |] %16
V:3
 x12 | x12 | x12 | x12 | x12 | x12 | x12 |[M:7/4] z2 z4 [A,C]2 z2 z4 |[M:6/4] x12 | x12 | x12 | %11
 x12 | x12 | x12 | x12 | x12 |] %16
V:4
 x12 | x12 | x12 | x12 | x12 | x12 | x6[K:treble] x4[K:bass] x2 | %7
[M:7/4] z2 z4 A,,2- A,,4- A,,3/2 z/ |[M:6/4] x12 | x12 | x12 | x12 | x12 | x12 | x12 | x12 |] %16

